icons/evolvere-blue-folders-flat-vivid-dark-fallback/devices/64/battery.svg

<?xml version="1.0" encoding="UTF-8" standalone="no"?>
<!-- Created with Inkscape (http://www.inkscape.org/) -->

<svg
   xmlns:dc="http://purl.org/dc/elements/1.1/"
   xmlns:cc="http://creativecommons.org/ns#"
   xmlns:rdf="http://www.w3.org/1999/02/22-rdf-syntax-ns#"
   xmlns:svg="http://www.w3.org/2000/svg"
   xmlns="http://www.w3.org/2000/svg"
   xmlns:sodipodi="http://sodipodi.sourceforge.net/DTD/sodipodi-0.dtd"
   xmlns:inkscape="http://www.inkscape.org/namespaces/inkscape"
   width="64"
   height="64"
   id="svg13094"
   version="1.1"
   inkscape:version="0.91+devel r"
   sodipodi:docname="battery.svg">
  <sodipodi:namedview
     id="base"
     pagecolor="#ffffff"
     bordercolor="#666666"
     borderopacity="1.0"
     inkscape:pageopacity="0"
     inkscape:pageshadow="2"
     inkscape:zoom="11.313709"
     inkscape:cx="31.784796"
     inkscape:cy="30.094938"
     inkscape:document-units="px"
     inkscape:current-layer="svg13094"
     showgrid="true"
     inkscape:snap-bbox="true"
     inkscape:bbox-paths="true"
     inkscape:bbox-nodes="true"
     inkscape:snap-bbox-edge-midpoints="true"
     inkscape:snap-bbox-midpoints="true"
     inkscape:object-paths="true"
     inkscape:snap-intersection-paths="true"
     inkscape:object-nodes="true"
     inkscape:snap-smooth-nodes="true"
     inkscape:snap-midpoints="true"
     inkscape:snap-object-midpoints="true"
     inkscape:snap-center="true"
     showguides="true"
     inkscape:guide-bbox="true"
     inkscape:window-width="1920"
     inkscape:window-height="1023"
     inkscape:window-x="-10"
     inkscape:window-y="35"
     inkscape:window-maximized="1"
     inkscape:snap-global="true"
     fit-margin-top="0"
     fit-margin-left="0"
     fit-margin-right="0"
     fit-margin-bottom="0"
     showborder="true"
     inkscape:showpageshadow="false"
     inkscape:snap-page="true">
    <inkscape:grid
       type="xygrid"
       id="grid3075"
       empspacing="5"
       visible="true"
       enabled="true"
       snapvisiblegridlinesonly="true"
       originx="1.6362304e-08px"
       originy="18px" />
  </sodipodi:namedview>
  <defs
     id="defs13096">
    <inkscape:path-effect
       effect="spiro"
       id="path-effect3954"
       is_visible="true" />
  </defs>
  <metadata
     id="metadata13099">
    <rdf:RDF>
      <cc:Work
         rdf:about="">
        <dc:format>image/svg+xml</dc:format>
        <dc:type
           rdf:resource="http://purl.org/dc/dcmitype/StillImage" />
        <dc:title></dc:title>
      </cc:Work>
    </rdf:RDF>
  </metadata>
  <path
     id="path3821"
     d="M 0,10.90625 0,57.5 0.09375,57.59375 C 0.0402232,57.753417 0,57.92673 0,58.09375 l 0,2.8125 C 0,62.611986 2.899,64 6.5,64 l 51,0 c 3.601,0 6.5,-1.388014 6.5,-3.09375 l 0,-2.8125 c 0,-0.16702 -0.04022,-0.340333 -0.09375,-0.5 L 64,57.5 64,10.90625 z"
     style="color:#000000;fill:#3b577a;fill-opacity:1;fill-rule:nonzero;stroke:none;stroke-width:1;marker:none;visibility:visible;display:inline;overflow:visible;enable-background:accumulate;opacity:1;stroke-linecap:butt;stroke-linejoin:miter;stroke-miterlimit:4;stroke-dasharray:none;stroke-dashoffset:0;stroke-opacity:1"
     inkscape:connector-curvature="0"
     sodipodi:nodetypes="cccsssssscccc" />
  <path
     sodipodi:nodetypes="cccsssssscccc"
     inkscape:connector-curvature="0"
     style="color:#000000;fill:#ba752b;fill-opacity:1;fill-rule:nonzero;stroke:none;stroke-width:2.28571415;marker:none;visibility:visible;display:inline;overflow:visible;enable-background:accumulate"
     d="M 0,10.90625 0,26.5 0.09375,26.59375 C 0.0402232,26.753417 0,26.92673 0,27.09375 l 0,2.8125 C 0,31.611986 2.899,33 6.5,33 l 51,0 c 3.601,0 6.5,-1.388014 6.5,-3.09375 l 0,-2.8125 c 0,-0.16702 -0.04022,-0.340333 -0.09375,-0.5 L 64,26.5 64,10.90625 z"
     id="path3849" />
  <path
     style="fill:#1f0700;fill-opacity:0.06978802;fill-rule:nonzero"
     d="M 6.5,0 C 4.5972927,0 2.9053782,0.38675065 1.71875,1 L 32,1 62.28125,1 C 61.094622,0.38675065 59.402707,0 57.5,0 L 32,0 z"
     id="path4444"
     inkscape:connector-curvature="0"
     sodipodi:nodetypes="scccscs" />
  <g
     id="g3043"
     inkscape:export-filename="folder.png"
     inkscape:export-xdpi="90"
     inkscape:export-ydpi="90"
     transform="translate(-0.62500009,0.082283)" />
  <g
     id="scalable"
     transform="matrix(1.0385892,0,0,1.0385892,1214.7222,1878.8121)"
     inkscape:label="#g3701"
     style="fill:#ffffff" />
  <path
     sodipodi:nodetypes="sssssssss"
     style="color:#000000;fill:#e1e5e8;fill-opacity:1;fill-rule:nonzero;stroke:none;stroke-width:0.62299293;marker:none;visibility:visible;display:inline;overflow:visible;enable-background:accumulate"
     d="m 6.5,0 51,0 C 61.101,0 64,1.3732106 64,3.0789476 l 0,7.8421054 C 64,12.62679 61.101,14 57.5,14 l -51,0 C 2.899,14 1.6362304e-8,12.62679 1.6362304e-8,10.921053 l 0,-7.8421054 C 1.6362304e-8,1.3732106 2.899,0 6.5,0 z"
     id="path3886"
     inkscape:connector-curvature="0" />
  <path
     inkscape:connector-curvature="0"
     style="color:#000000;fill:#162f4d;fill-opacity:0.35241502;fill-rule:nonzero;stroke:none;stroke-width:0.62299293;marker:none;visibility:visible;display:inline;overflow:visible;enable-background:accumulate;opacity:1;stroke-linecap:butt;stroke-linejoin:miter;stroke-miterlimit:4;stroke-dasharray:none;stroke-dashoffset:0;stroke-opacity:1"
     d="M 6.5,1 C 2.899,1 1,2.294263 1,4 L 1,6 C 1,4.294263 2.899,3 6.5,3 l 51,0 C 61.101,3 63,4.294263 63,6 L 63,4 C 63,2.294263 61.101,1 57.5,1 z"
     id="path3886-4"
     sodipodi:nodetypes="sscsscsss" />
  <path
     style="font-size:medium;font-style:normal;font-variant:normal;font-weight:normal;font-stretch:normal;text-indent:0;text-align:start;text-decoration:none;line-height:normal;letter-spacing:normal;word-spacing:normal;text-transform:none;direction:ltr;block-progression:tb;writing-mode:lr-tb;text-anchor:start;baseline-shift:baseline;color:#000000;fill:#f2f4f5;fill-opacity:1;stroke:none;stroke-width:0.62299293;marker:none;visibility:visible;display:inline;overflow:visible;enable-background:accumulate;font-family:Sans;-inkscape-font-specification:Sans;opacity:1;stroke-linecap:butt;stroke-linejoin:miter;stroke-miterlimit:4;stroke-dasharray:none;stroke-dashoffset:0;stroke-opacity:1"
     d="M 6.5 0 C 2.899 0 0 1.388013 0 3.09375 L 0 10.90625 C 0 12.611987 2.8990433 14.017652 6.5 14 L 57.5 14 C 61.101 14 64 12.611987 64 10.90625 L 64 3.09375 C 64 1.388013 61.101 0 57.5 0 L 6.5 0 z M 6.5 1 L 57.5 1 C 59.173386 1 60.691231 1.3405832 61.6875 1.8125 C 62.683769 2.2844168 63 2.807401 63 3.09375 L 63 10.90625 C 63 11.192599 62.683769 11.715583 61.6875 12.1875 C 60.691231 12.659417 59.173386 13 57.5 13 L 6.5 13 C 4.8266138 13 3.3087688 12.659417 2.3125 12.1875 C 1.3162312 11.715583 1 11.192599 1 10.90625 L 1 3.09375 C 1 2.807401 1.3162312 2.2844168 2.3125 1.8125 C 3.3087688 1.3405832 4.8266138 1 6.5 1 z "
     id="path4009" />
  <path
     id="path3950"
     d="m 17,6 0,2 0,2 7,0 c 3.865994,0 7,-0.89543 7,-2 0,-1.1045696 -3.134006,-2 -7,-2 l -7,0 z"
     style="color:#000000;fill:#162f4d;fill-opacity:0.35241502;fill-rule:evenodd;stroke:none;stroke-width:0.62299293;marker:none;visibility:visible;display:inline;overflow:visible;enable-background:accumulate;opacity:1;stroke-linecap:butt;stroke-linejoin:miter;stroke-miterlimit:4;stroke-dasharray:none;stroke-dashoffset:0;stroke-opacity:1"
     inkscape:connector-curvature="0" />
  <path
     style="color:#000000;fill:#162f4d;fill-opacity:0.35241502;fill-rule:evenodd;stroke:none;stroke-width:0.62299293;marker:none;visibility:visible;display:inline;overflow:visible;enable-background:accumulate;opacity:1;stroke-linecap:butt;stroke-linejoin:miter;stroke-miterlimit:4;stroke-dasharray:none;stroke-dashoffset:0;stroke-opacity:1"
     d="m 47,6 0,2 0,2 7,0 c 3.865994,0 7,-0.89543 7,-2 0,-1.1045696 -3.134006,-2 -7,-2 l -7,0 z"
     id="path3933"
     inkscape:connector-curvature="0" />
  <path
     sodipodi:nodetypes="csssccc"
     inkscape:connector-curvature="0"
     id="path3929"
     d="m 10,5 0,3 c 0,1.1045696 3.134006,2 7,2 3.865994,0 7,-0.8954304 7,-2 l 0,-3 -7,0 z"
     style="color:#000000;fill:#8a97a5;fill-opacity:1;fill-rule:evenodd;stroke:none;stroke-width:1.3333329;marker:none;visibility:visible;display:inline;overflow:visible;enable-background:accumulate" />
  <path
     style="color:#000000;fill:#8a97a5;fill-opacity:1;fill-rule:evenodd;stroke:none;stroke-width:1.3333329;marker:none;visibility:visible;display:inline;overflow:visible;enable-background:accumulate"
     d="m 40,5 0,3 c 0,1.1045696 3.134006,2 7,2 3.865994,0 7,-0.8954304 7,-2 l 0,-3 -7,0 z"
     id="path3864"
     inkscape:connector-curvature="0"
     sodipodi:nodetypes="csssccc" />
  <path
     style="color:#000000;fill:#f2f4f5;fill-opacity:1;fill-rule:evenodd;stroke:none;stroke-width:0.62299293;marker:none;visibility:visible;display:inline;overflow:visible;enable-background:accumulate;opacity:1;stroke-linecap:butt;stroke-linejoin:miter;stroke-miterlimit:4;stroke-dasharray:none;stroke-dashoffset:0;stroke-opacity:1"
     d="M 24.000001,4.9999998 C 24.000001,6.1045694 20.865994,7 17,7 13.134006,7 9.9999992,6.1045694 9.9999992,4.9999998 9.9999992,3.8954302 13.134006,2.9999996 17,2.9999996 c 3.865994,0 7.000001,0.8954306 7.000001,2.0000002 z"
     id="path3943"
     inkscape:connector-curvature="0"
     sodipodi:nodetypes="sssss" />
  <path
     sodipodi:nodetypes="sssss"
     inkscape:connector-curvature="0"
     id="path3937"
     d="M 54.000001,4.9999998 C 54.000001,6.1045694 50.865994,7 47,7 43.134006,7 39.999999,6.1045694 39.999999,4.9999998 c 0,-1.1045696 3.134007,-2.0000002 7.000001,-2.0000002 3.865994,0 7.000001,0.8954306 7.000001,2.0000002 z"
     style="color:#000000;fill:#f2f4f5;fill-opacity:1;fill-rule:evenodd;stroke:none;stroke-width:0.62299293;marker:none;visibility:visible;display:inline;overflow:visible;enable-background:accumulate;opacity:1;stroke-linecap:butt;stroke-linejoin:miter;stroke-miterlimit:4;stroke-dasharray:none;stroke-dashoffset:0;stroke-opacity:1" />
  <path
     style="color:#000000;fill:#8a97a5;fill-opacity:1;fill-rule:evenodd;stroke:none;stroke-width:1.3333329;marker:none;visibility:visible;display:inline;overflow:visible;enable-background:accumulate;opacity:1;stroke-linecap:butt;stroke-linejoin:miter;stroke-miterlimit:4;stroke-dasharray:none;stroke-dashoffset:0;stroke-opacity:1"
     d="m 52,4.9999998 c 0,0.6903561 -2.238576,1.2500003 -5,1.2500003 -2.761424,0 -5,-0.5596442 -5,-1.2500003 0,-0.6903561 2.238576,-1.2500003 5,-1.2500003 2.761424,0 5,0.5596442 5,1.2500003 z"
     id="path3868"
     inkscape:connector-curvature="0"
     sodipodi:nodetypes="sssss" />
  <path
     style="fill:#ffffff;fill-opacity:0.56810033;stroke:none"
     d="m 36,39 -11,10 8,0 -5,8 11,-11 -8,0 5,-7 z"
     id="path3952"
     inkscape:path-effect="#path-effect3954"
     inkscape:original-d="m 36,39 -11,10 8,0 -5,8 11,-11 -8,0 z"
     inkscape:connector-curvature="0"
     sodipodi:nodetypes="ccccccc" />
  <path
     style="color:#000000;fill:#ffffff;fill-opacity:0.56810033;fill-rule:nonzero;stroke:none;stroke-width:1;marker:none;visibility:visible;display:inline;overflow:visible;enable-background:accumulate"
     d="M 16 19 L 16 23 L 12 23 L 12 25 L 16 25 L 16 29 L 18 29 L 18 25 L 22 25 L 22 23 L 18 23 L 18 19 L 16 19 z "
     id="rect3958" />
  <rect
     style="color:#000000;fill:#ffffff;fill-opacity:0.56810033;fill-rule:nonzero;stroke:none;stroke-width:1;marker:none;visibility:visible;display:inline;overflow:visible;enable-background:accumulate"
     id="rect3956"
     width="2"
     height="10"
     x="23"
     y="-52"
     transform="matrix(0,1,-1,0,0,0)" />
</svg>

<svg xmlns="http://www.w3.org/2000/svg" viewBox="0 0 64 64"><g color="#000"><path d="m0 10.906v46.594l.094.094c-.054.16-.094.333-.094.5v2.813c0 1.706 2.899 3.094 6.5 3.094h51c3.601 0 6.5-1.388 6.5-3.094v-2.813c0-.167-.04-.34-.094-.5l.094-.094v-46.594z" fill="#3b577a"/><path d="m0 10.906v15.594l.094.094c-.054.16-.094.333-.094.5v2.813c0 1.706 2.899 3.094 6.5 3.094h51c3.601 0 6.5-1.388 6.5-3.094v-2.813c0-.167-.04-.34-.094-.5l.094-.094v-15.594z" fill="#ba752b"/></g><path d="m6.5 0c-1.903 0-3.595.387-4.781 1h30.28 30.28c-1.187-.613-2.879-1-4.781-1h-25.5z" fill="#1f0700" fill-opacity=".07"/><g color="#000"><path d="m6.5 0h51c3.601 0 6.5 1.373 6.5 3.079v7.842c0 1.706-2.899 3.079-6.5 3.079h-51c-3.601 0-6.5-1.373-6.5-3.079v-7.842c0-1.706 2.899-3.079 6.5-3.079" fill="#e1e5e8"/><path d="m6.5 1c-3.601 0-5.5 1.294-5.5 3v2c0-1.706 1.899-3 5.5-3h51c3.601 0 5.5 1.294 5.5 3v-2c0-1.706-1.899-3-5.5-3z" fill-opacity=".352" fill="#162f4d"/><path d="m6.5 0c-3.601 0-6.5 1.388-6.5 3.094v7.813c0 1.706 2.899 3.111 6.5 3.094h51c3.601 0 6.5-1.388 6.5-3.094v-7.813c0-1.706-2.899-3.094-6.5-3.094h-51m0 1h51c1.673 0 3.191.341 4.188.813.996.472 1.313.995 1.313 1.281v7.813c0 .286-.316.809-1.313 1.281-.996.472-2.514.813-4.188.813h-51c-1.673 0-3.191-.341-4.188-.813-.996-.472-1.313-.995-1.313-1.281v-7.813c0-.286.316-.809 1.313-1.281.996-.472 2.514-.813 4.188-.813" fill="#f2f4f5"/><g fill-rule="evenodd"><g fill="#162f4d" fill-opacity=".352"><path d="m17 6v2 2h7c3.866 0 7-.895 7-2 0-1.105-3.134-2-7-2h-7"/><path d="m47 6v2 2h7c3.866 0 7-.895 7-2 0-1.105-3.134-2-7-2h-7"/></g><g fill="#8a97a5"><path d="m10 5v3c0 1.105 3.134 2 7 2 3.866 0 7-.895 7-2v-3h-7z"/><path d="m40 5v3c0 1.105 3.134 2 7 2 3.866 0 7-.895 7-2v-3h-7z"/></g><g fill="#f2f4f5"><path d="m24 5c0 1.105-3.134 2-7 2-3.866 0-7-.895-7-2 0-1.105 3.134-2 7-2 3.866 0 7 .895 7 2"/><path d="m54 5c0 1.105-3.134 2-7 2-3.866 0-7-.895-7-2 0-1.105 3.134-2 7-2 3.866 0 7 .895 7 2"/></g><path d="m52 5c0 .69-2.239 1.25-5 1.25-2.761 0-5-.56-5-1.25 0-.69 2.239-1.25 5-1.25 2.761 0 5 .56 5 1.25" fill="#8a97a5"/></g></g><g fill="#fff" fill-opacity=".568"><path d="m36 39l-11 10h8l-5 8 11-11h-8l5-7"/><g color="#000"><path d="m16 19v4h-4v2h4v4h2v-4h4v-2h-4v-4h-2"/><path transform="matrix(0 1-1 0 0 0)" d="m23-52h2v10h-2z"/></g></g></svg>
